svg/24/logo-gamer-sensei.svg

<svg width="24" height="24" viewBox="0 0 24 24" fill="currentColor" xmlns="http://www.w3.org/2000/svg"><path d="M21 21H3V3H21V5.00001H4.99999V19.0001H19V9.00004H8.99998V11.0001H17V17.0001H7V15.0001H15V13.0001H7V7.00003H21V21Z"/></svg>

<svg xmlns="http://www.w3.org/2000/svg" width="24" height="24" fill="currentColor" viewBox="0 0 24 24">
  <path d="M21 21H3V3h18v2H5v14h14V9H9v2h8v6H7v-2h8v-2H7V7h14v14Z"/>
</svg>
